X:1
T:O com'e gran martir
T:Andreas Pevernage
T:Source : Melodia Olympica---Anversa---P.Phalesio é G.Bellero---1591. Editor : André Vierendeels (111/01/14).
T:O com'e gran martir
C:Andreas Pevernage
%%score [ 1 2 [ 3 4 ] ]
L:1/8
Q:1/4=94
M:4/4
K:F
V:1 treble nm="Canto" snm="S"
V:2 treble nm="Alto" snm="A"
V:3 treble-8 nm="Tenor 1" snm="T 1"
V:4 treble-8 nm="Tenor 2" snm="T 2"
V:1
 z8 | z4 G4 | d8- | d4 _e4 | d2 d2 B4 | A4 z2 d2- | d2 f4 _e2- | e2 d4 c2 | d8 | d4 z2 d2- | %10
w: |O,|co-|* m'e|gran mar- ti-|re, O,|_ co- m'e|_ gran mar-|ti-|re, a|
 d2 d2 G2 c2- | c2 =B2 c4 | d8 |"^-natural" z2 d2 d2 d2 | B2 c2 d4 | d2 f4 e2- | e2 d4 ^c2 | %17
w: _ ce- lar suo|_ de- si-|re,|quan- do con|pu- ra fde,|con pu- ra|_ fe- *|
 d4 A4 | c4 c4 | d2 c2 c4 | =B4 z2 d2- | d2 c4 A2 | B2 c2 A4 | G4 z2 B2 | B8- | B4 B4 | B4 B4 | %27
w: de, s'a-|ma chi|nol sel cre-|de, s'a-|* ma chi|nol sel cre-|de, O|mio|_ so-|a- ve'ar-|
 A8 | A4 z2 A2 | A4 A4 |"^-natural""^-natural" c2 c2 B4 | A4 z2 ^c2 | ^c4 d4 | e2 f2 d4 | %34
w: do-|re, O,|mio dol-|ce de- si-|o, O,|mio dol-|ce de- si-|
 ^c4 z2 d2 | f2 f2 e2 ^c2 | d4 ^c2 d2 | d2 d2 c2 A2 | B4 A4 | z4 c4 | c4 c4 | d6 d2 | d4 =B2 d2- | %43
w: o, s'ogn'-|un' am'- il suo|co- re, s'ogn'-|un am' il suo|co- re,|e-|voi set'|il cor|mi- o, e|
"^-natural" d2 f4 d2- | d2 B4 G2 | c8 | c8 | z2 d2 d3 d | c2 c2 =B4 | c2 f2 e3 e | e2 e2 d4 | %51
w: _ voi set'|_ il cor|mi-|o,|all' hor sia|che non v'a-|mi, all' hor sia|che non v'a-|
 ^c4 z2 e2 | f3 e d2 d2 | e4 c2 c2 | d3 c B2 B2 | A4 A2 d2 | d3 c B2 B2 | c4 A2 A2 | B3 A G2 G2 | %59
w: mi, che|vi- ver piu non|bra- mi, che|vi- ver piu non|bra- mi, che|vi- ver piu non|bra- mi, che|vi- ver piu non|
 A4 F2 B2 | B2 d2 c4- | c2 B2 A4 | A2 d2 d3 c | B2 B2 c4 | A2 A2 B3 A | G2 G2 A4 | F2 B4 d2 | %67
w: bra- mi, che|vi- ver piu|_ non bra-|mi, che vi- ver|piu non bra-|mi, che vi- ver|piu non bra-|mi, che vi-|
 c2 c3 c B2 | A2 f2 f2 _e2 | d3 d d4 | =B8 |] %71
w: ver piu non bra-|mi, che vi- ver|piu non bra-|mi.|
V:2
 G8 | B8- | B4 A4 | B6 B2 | B4 G4- | G2 FE ^F4 | z2 F2 c4 | B2 A4 G2 | ^F2 G2 A4 | =B4 z2 B2- | %10
w: O,|co-|* m'e|gran mar-|ti- *|* * * re,|O, co-|m'e gran mar-|ti- * *|re, a|
 B2 =B2 c2 A2- | A2 G2 G4 | ^F2 A2 A2 A2 |"^-natural" F2 A2 B4 | G4 A4- | A2 d4 c2 | A2 A2 A4 | %17
w: _ ce- lar suo|_ de- si-|re, quan- do con|pu- ra fe-|de, quan-|* do con|pu- ra fe-|
"^-natural" ^F4 F4 | G2 G2 A4 | G2 G4 F2 | G4 z2 B2- | B2 A4 D2 | G2 G2 ^F4 | G4 z2 G2 | G4 F4 | %25
w: de, s'a-|ma chi nol|sel cre- *|de, s'a-|* ma chi|nol sel cre-|de, O|mio so-|
 G8- | G4 G4 | F8 | E4 z2 E2 | E4 ^F4 | G2 A2 G4 | E4 z2 A2 | A6 A2 | %33
w: a-|* ve'ar-|do-|re, O,|mio dol-|ce de- si-|o, O,|mio dol-|
"^-natural""^-natural" c2 c2 B4 | A2 A2 B2 B2 | A2 F2 G2 A2- | A2 G2 A2 A2 | F2 D2 E2 F2 | D4 F4 | %39
w: ce de- si-|o, s'ogn'- un' am'|il suo co- *|* * re, s'ogn'-|un am' il suo|co- re,|
 z4 A4- | A2 G2 A4 | D2 F2 B4 | A4 z2 G2 | B4 A4 | D2 F2 G2 B2 | A4 A4 | G4 A4 | z2 B2 B3 B | %48
w: e|_ voi set'|il cor mi-|o, e|voi se-|te, e voi set'|il cor-|mi- o,|all' hor sia|
 G2 G2 G4 | A2 c2 c3 c | c2 c2 A4 |"^-natural" A2 A2 c3 B | A2 A2 B4 | G2 G2 A3 G | F2 F2 G3 F | %55
w: che non v'a-|mi, all' hor sia|che non v'a-|mi, che vi- ver|piu non bra-|mi, che vi- ver|piu non bra- *|
 E4 ^F2 A2- | A2 B3 A G2 | G2 A4 F2 |"^b" F2 G3 F E2 |"^b" E2 F4 D2 | z2 B2 A2 A2 | A2 G2 ^F4 | %62
w: * mi, che|_ vi- ver piu|non bra- mi,|che vi- ver piu|non bra- mi,|che vi- ver|piu non bra-|
 ^F2 A4 B2- | BA G2 G2 A2- | A2 F2 F2 G2- |"^b""^b" GF E2 E2 F2- | F2 D2 z2 B2 | A2 A2 A2 G2 | %68
w: mi, che vi-|* ver piu non bra-|* mi, che vi-|* ver piu non bra-|* mi, che|vi- ver piu non|
 FE DE FG A2- | A2 G4 ^F2 | G8 |] %71
w: bra- * * * * * *||mi.|
V:3
 z4 G4 | g8- | g4 ^f4 | g6 g2 | g4 d4 | z4 d4 | a6 g2- | g2 f2 g4 | a2 g4 ^f2 | g4 z2 g2- | %10
w: O,|co-|* m'e|gran mar-|ti- re,|O,|co- m'e|_ gran mar-|ti- * *|re, a|
 g2 g2 e2 f2- | f2 d2 G4 | A4 z2 d2 | d2 d2 B2 d2 | _e4 d4 | f4 g4 | f4 e4 | d4 z2 d2 | e6 f2 | %19
w: _ ce- lar suo|_ de- si-|re, quan-|do con pu- ra|fe- de,|con pu-|ra fe-|de, s'a-|ma chi|
 d2 e2 c4 | d4 g4 | f4 f4 | _e2 c2 d4 | G4 z2 d2 | d4 d4 | _e4 e4 | d8- | d8 | ^c4 z2 c2 | ^c4 d4 | %30
w: nol sel cre-|de, s'a-|ma chi|nol sel cre-|de, O|mio so-|a- ve'ar-|do-||re, O,|mio dol-|
 e2 f2 d4 | ^c4 z2 e2 | e4 ^f4 | g2 a2 g4 | e2 e2 g2 g2 | f2 d2 e4 | d2 d2 e2 f2 | de fg a2 a2 | %38
w: ce de- si-|o, O,|mio dol-|ce de- si-|o, s'ogn'- un am'|il suo co-|re, s'ogn'- un am'|il _ _ _ _ suo|
 g4 c4 | z4 f4- | f2 e4 f2- | f2 d4 g2 | ^f4 g4 | z2 d4 f2- | f2 d4 e2- | e2 c4 f2- | f2 e2 f2 f2 | %47
w: co- re,|e|_ voi set'|_ il cor|mi- o,|e voi|_ set' il|_ cor mi-|* * o, all'|
 f3 f f2 f2 | _e4 d2 d2 | f2 a2 g4- | g2 g2 f4 | e2 e4 a2- | ag f2 f2 g2- | g2 e2 e2 f2- | %54
w: hor sia che non|v'a- mi, all'|hor sia che|_ non v'a-|mi, che vi-|* ver piu non bra-|* mi, che vi-|
 fe d4 d2 | ^c4 d4 | z2 f2 g3 f |"^b""^b" e2 e2 f4 |"^b" d2 d2 e3 d | c2 c2 d4 | d2 g2 e2 e2 | %61
w: * ver piu non|bra- mi,|Che vi- ver|piu non bra-|mi, che vi- ver|piu non bra-|mi, che vi- ver|
"^-natural" f2 d2 d4 | d4 z2 f2 |"^b""^b" g3 f e2 e2 | f4 d2 d2 |"^b" e3 d c2 c2 | d4 d2 g2 | %67
w: piu non bra-|mi, che|vi- ver piu non|bra- mi, che|vi- ver piu non|bra- mi, che|
 e4 f2 d2- | dc/B/ AG AB c2- | c2 B2 A4 | G8 |] %71
w: vi- ver piu|_ _ _ _ _ _ _ _|* non bra-|mi.|
V:4
 z8 | z8 | z8 | z8 | G8 | d8- | d4 c4 | d4 _e4 | d8 | G4 z2 G2- | G2 G2 c2 F2- | F2 G2 _E4 | D8 | %13
w: ||||co-|m'e|* gran|mar- ti-|re,|a ce-|_ lar suo de-|_ si- re,|quan-|
 z8 | z4 z2 d2 | d2 d2 B2 c2 | d4 A4 | z4 d4 | c6 A2 | =B2 c2 A4 | G8 | z8 | z8 | z4 G4 | G4 B4 | %25
w: |do|con pu- ra fe-|de, s'a-|ma|chi nol|sel cre- de,|O|||mio|so- a-|
 _E4 E4 | G8 | D8 | A8 | A4 d4 |"^-natural" c2 F2 G4 | A4 z2 A2 | A4 d4 |"^-natural" c2 F2 G4 | %34
w: ve'ar- do-|re,|O,|mio|dol- ce|de- si- o,|O, mio|dol- ce|de- si- o,|
 A4 z2 G2 |"^-natural" d2 d2 c2 A2 | B4 A2 D2 | B2 B2 A2 F2 | G4 F4 | z4 F4 | c4 A4 | B4 G4 | %42
w: s'ogn'- un|am' il suo co-|re, s'ogn'- un|am' il suo co-|re, e|voi|set' il|cor mi-|
 d4 G4 | z4 D4 | B4 G4 | A4 F4 | c4 F2 F2 | B3 B B2 B2 | c4 G4 | z2 F2 c3 c | c2 c2 d4 | A4 z2 A2 | %52
w: o, e|voi|set' il|cor mi-|o, all' hor|sia che non v'a-|mi, all'|hor sia che|non v'a- mi,|che vi-|
 d3 c B2 B2 | c4 A2 A2 | B3 A G2 G2 | A4 D4 | d4 _e3 d | c2 c2 d4 | B2 B2 c3 B | A2 A2 B4 | %60
w: ver piu non bra-|mi, che vi-|ver piu non bra-|mi, che|vi- ver piu|non bra- mi,|che vi- ver piu|non bra- mi,|
 G2 G2 A3 G |"^-natural" F2 G2 D4 | D4 d4 | _e3 d c2 c2 | d4 B2 B2 | c3 B A2 A2 | B4 G2 G2 | %67
w: che vi- ver piu|non bra- mi,|che vi-|ver piu non bra-|mi, che vi-|ver piu non bra-|mi, che vi-|
 A3 G F2 G2 | D6 C2 | D8 | G8 |] %71
w: ver piu non bra-|mi. *|||

